X: 1
T: the Blooming Meadows
T: the High Part of the Road
R: jig
S: Darcie's Trad. Tune Sourcebook
M: 6/8
L: 1/8
K: G
A |\
"G"B2B "Am"cBc | "Bm"ded  "Am"cAG | "D7"F2D DED | "G"GFG "D7"ABc |\
"G"~B3 "Am"cBc | "Bm"dcA "(C)"cde | "D7"fed cAF |    AGF  "G"G2 :|
|:d |\
"G"~g3 def | g2a bag | "D7"~f3 def | afd cAF |\
"G"~g3 def | g2a bag | "D7"fed cAF | AGF "G"G2 :|
